src/images/int-flag-small.svg

<svg fill="none" height="16" viewBox="0 0 16 16" width="16" xmlns="http://www.w3.org/2000/svg"><g stroke="#000" stroke-linecap="round" stroke-linejoin="round"><path d="m2.66666 9.99998s.66666-.66667 2.66666-.66667 3.33334 1.33329 5.33338 1.33329c2 0 2.6666-.66662 2.6666-.66662v-8s-.6666.66667-2.6666.66667c-2.00004 0-3.33338-1.33334-5.33338-1.33334s-2.66666.66667-2.66666.66667z"/><path d="m2.66666 14.6667v-4.6667"/></g></svg>

<svg width="16" height="16" viewBox="0 0 16 16" fill="none" xmlns="http://www.w3.org/2000/svg">
<path d="M2.66666 9.99998C2.66666 9.99998 3.33332 9.33331 5.33332 9.33331C7.33332 9.33331 8.66666 10.6666 10.6667 10.6666C12.6667 10.6666 13.3333 9.99998 13.3333 9.99998V1.99998C13.3333 1.99998 12.6667 2.66665 10.6667 2.66665C8.66666 2.66665 7.33332 1.33331 5.33332 1.33331C3.33332 1.33331 2.66666 1.99998 2.66666 1.99998V9.99998Z" stroke="black" stroke-linecap="round" stroke-linejoin="round"/>
<path d="M2.66666 14.6667V10" stroke="black" stroke-linecap="round" stroke-linejoin="round"/>
</svg>
